X: 49
T: Tommy Reck's Polka
R:polka
Z:J Walsh <walsh@math.ubc.ca> abcusers 2002-4-22
N:with chords by Henrik's Cyberbacker, 2 chords/bar and strangeness = 0%.
S:T. Reck
M:2/4
K:D
"D"A2d2 "D"fgfe|"D"d2F2 "D"A3d|"A"c2E2 "G"G3B|"D"A2D2 "D"F2A2|\
"D"A2d2 "D"fgfe|"D"d2F2 "D"A3d|"F#m"c2A2 "Em"G2E2|"D"F2D2 "D"D4:|
"D"f2d2 "D"d4|"F#m"c2B2 "Bm"B4|"Em"e2B2 "F#m"c2B2|"Bm"B2A2 "D"F2A2|\
"D"f2d2 "D"d4|"F#m"c2B2 "Bm"B4|"Em"B2e2 "Bm"B2c2|"D"d6 z2:|
%%sep 1 1 500
